!!!COM: Gioseffo Zarlino
!!!OPR: Le istitutioni harmoniche
!!!OTL: Type Eight: Canon at the fifth above after a semibreve with the cantus firmus as lowest voice.
!!!PPR: Francesco Senese
!!!PDT: 1573
!!!PPP: Venice
!!!ONB: Reprint ed., New York: Broude Bros., 1965.
!!!ONB: Transcribed from Gioseffo Zarlino, Le Istitutioni Harmoniche, 1573,
!!!ONB: Transcribed from Denis Collins, "Zarlino and Berardi as Teachers of
!!!ONB: Canon", Theoria, Vol. 7 (1993) pp. 112-113.
**kern	**kern	**kern
*CF	*guida	*conseq
*k[]	*k[]	*k[]
*M4/2	*M4/2	*M4/2
=1-	=1-	=1-
1G	1r	0r
1A	1c	.
=2	=2	=2
1G	1.d	1g
1F	.	[1a
.	[2c	.
=3	=3	=3
1G	4c]	2a]
.	8B	.
.	8A	.
.	2B	2.g
1A	1c	.
.	.	8f
.	.	8e
.	.	2f
=4	=4	=4
1G	2d	1g
.	2.d	.
1c	.	2a
.	4c	.
.	[2c	[2a
=5	=5	=5
1d	2c]	4a]
.	.	4g
.	2B	1g
1c	1A	.
.	.	2f
=6	=6	=6
1c	2r	1e
.	2e	.
1G	2d	2r
.	2d	2b
=7	=7	=7
1A	2c	2a
.	2.f	2a
1c	.	2g
.	8e	.
.	8d	.
.	2e	[2cc
=8	=8	=8
1d	2f	4cc]
.	.	8b
.	.	8a
.	4e	2b
.	4d	.
1c	4e	2cc
.	4f	.
.	[2g	4b
.	.	4a
=9	=9	=9
1d	4g]	4b
.	8f	4cc
.	8e	.
.	2f	2.dd
1e	2g	.
.	.	8cc
.	.	8b
.	4f	2cc
.	4e	.
=10	=10	=10
1d	4f	2dd
.	4g	.
.	1a	4cc
.	.	4b
1c	.	4cc
.	.	4dd
.	2g	[2ee
=11	=11	=11
1d	4.f	2ee]
.	8g	.
.	2a	2dd
1e	1A	4.cc
.	.	8dd
.	.	2ee
=12	=12	=12
1c	4r	1e
.	4e	.
.	2c	.
1B	1d	4r
.	.	4b
.	.	2g
=13	=13	=13
1A	2.e	1a
.	4c	.
1G	2d	2.b
.	2d	.
.	.	4g
=14	=14	=14
1c	4e	2a
.	4d	.
.	4c	2a
.	8B	.
.	8A	.
1d	1G	4b
.	.	4a
.	.	4g
.	.	8f
.	.	8e
=15	=15	=15
1G	2r	1d
.	2d	.
1A	2.c	2r
.	.	2a
.	4d	.
=16	=16	=16
1c	2e	2.g
.	2c	.
.	.	4a
1B	1d	2b
.	.	2g
=17	=17	=17
1c	2r	1a
.	2A	.
1A	2.c	2r
.	.	2e
.	8B	.
.	8c	.
=18	=18	=18
1G	2d	2.g
.	2B-	.
.	.	8f
.	.	8g
1F	2A	2a
.	[2d	2f
=19	=19	=19
1A	4d]	2e
.	8c	.
.	8B	.
.	2c	2.a
1B-	1d	.
.	.	8g
.	.	8f
.	.	2g
=20	=20	=20
1A	2e	1a
.	2c	.
1G	2d	2b
.	2B-	2g
=21	=21	=21
1F	1A	2a
.	.	2f
1G	2G	1e
.	2E	.
=22	=22	=22
[0G	2.G	2d
.	.	2B
.	4A	.
.	1B	[1d
=23	=23	=23
0G]	0B	0d]
==	==	==
*-	*-	*-
!!!CDT: 1517/3/22-1590/2/14
!!!CNT: Italia
!!!ODT: <1573//
!!!YEP: David Huron and Denis Collins
!!!YEN: Canada
!!!AIN: vox; ?
!!!AST: polyphony
!!!RDT: 1995 July 3
!!!YED: 1995 August 31
!!!AFR: cantus firmus canon
!!!AMT: simple quadruple
!!!EEV: 1.0
